fs/apps_add_in_24_filled.svg

<svg viewBox="0 0 24 24" fill="none" xmlns="http://www.w3.org/2000/svg" height="1em" width="1em">
  <path d="M10.5 3C11.8807 3 13 4.11929 13 5.5V11H18.5C19.8807 11 21 12.1193 21 13.5V18.5C21 19.8807 19.8807 21 18.5 21H5.5C4.11929 21 3 19.8807 3 18.5V5.5C3 4.11929 4.11929 3 5.5 3H10.5ZM11 13H5V18.5C5 18.7761 5.22386 19 5.5 19H11V13ZM18.5 13H13V19H18.5C18.7761 19 19 18.7761 19 18.5V13.5C19 13.2239 18.7761 13 18.5 13ZM10.5 5H5.5C5.22386 5 5 5.22386 5 5.5V11H11V5.5C11 5.22386 10.7761 5 10.5 5ZM17.8834 2.00673L18 2C18.5128 2 18.9355 2.38604 18.9933 2.88338L19 3V5H21C21.5128 5 21.9355 5.38604 21.9933 5.88338L22 6C22 6.51284 21.614 6.93551 21.1166 6.99327L21 7H19V9C19 9.51284 18.614 9.93551 18.1166 9.99327L18 10C17.4872 10 17.0645 9.61396 17.0067 9.11662L17 9V7H15C14.4872 7 14.0645 6.61396 14.0067 6.11662L14 6C14 5.48716 14.386 5.06449 14.8834 5.00673L15 5H17V3C17 2.48716 17.386 2.06449 17.8834 2.00673L18 2L17.8834 2.00673Z" fill="#212121"/>
</svg>

<svg viewBox="0 0 24 24" fill="none" xmlns="http://www.w3.org/2000/svg" height="1em" width="1em">
  <path d="M10.5 3A2.5 2.5 0 0 1 13 5.5V11h5.5a2.5 2.5 0 0 1 2.5 2.5v5a2.5 2.5 0 0 1-2.5 2.5h-13A2.5 2.5 0 0 1 3 18.5v-13A2.5 2.5 0 0 1 5.5 3h5Zm.5 10H5v5.5a.5.5 0 0 0 .5.5H11v-6Zm7.5 0H13v6h5.5a.5.5 0 0 0 .5-.5v-5a.5.5 0 0 0-.5-.5Zm-8-8h-5a.5.5 0 0 0-.5.5V11h6V5.5a.5.5 0 0 0-.5-.5Zm7.383-2.993L18 2a1 1 0 0 1 .993.883L19 3v2h2a1 1 0 0 1 .993.883L22 6a1 1 0 0 1-.883.993L21 7h-2v2a1 1 0 0 1-.883.993L18 10a1 1 0 0 1-.993-.883L17 9V7h-2a1 1 0 0 1-.993-.883L14 6a1 1 0 0 1 .883-.993L15 5h2V3a1 1 0 0 1 .883-.993L18 2l-.117.007Z" fill="#212121"/>
</svg>
